icon-themes/sifr_svg/cmd/sc_outputqualityblackwhite.svg

<svg xmlns="http://www.w3.org/2000/svg" viewBox="0 0 16 16">
  <path
     style="fill:#000000"
     d="M 1 1 L 1 13 L 7 13 L 7 14 L 5 14 L 5 16 L 11 16 L 11 14 L 9 14 L 9 13 L 15 13 L 15 1 L 1 1 z M 3 3 L 13 3 L 13 9 L 10 7 L 7 11 L 5 9 L 3 11 L 3 3 z M 5.5 4 C 4.6715729 4 4 4.6715729 4 5.5 C 4 6.3284271 4.6715729 7 5.5 7 C 6.3284271 7 7 6.3284271 7 5.5 C 7 4.6715729 6.3284271 4 5.5 4 z "
     />
</svg>

<svg viewBox="0 0 16 16" xmlns="http://www.w3.org/2000/svg"><path d="m1 1v12h6v1h-2v2h6v-2h-2v-1h6v-12zm2 2h10v6l-3-2-3 4-2-2-2 2zm2.5 1c-.8284271 0-1.5.6715729-1.5 1.5s.6715729 1.5 1.5 1.5 1.5-.6715729 1.5-1.5-.6715729-1.5-1.5-1.5z"/></svg>
